X:1
T:Darak, 66.66
T:Darak, 66.66
T:James M. Dungan, 1898
T:Public Domain Courtesy of the Cyber Hymnal™
C:James M. Dungan, 1898
Z:Public Domain
Z:Courtesy of the Cyber Hymnal™
%%score ( 1 2 ) 3
L:1/8
Q:1/4=105
M:4/4
K:Eb
V:1 treble 
V:2 treble 
V:3 bass 
V:1
 [EG]4 [EA]2 [EG]2 | [EG]2 [DF]2 [DF]4 | [DA]4 [DB]2 [DA]2 | [EA]2 [EG]2 [EG]4 | %4
 [EB]4 [Ec]2 [EB]2 | [CB]2 [CA]2 [CE]2 [CF]2 | [DG]2 E2 !fermata![EG]3 [DF] | E6 z2 |] %8
V:2
 x8 | x8 | x8 | x8 | x8 | x8 | x2 E2 x4 | E6 x2 |] %8
V:3
 [E,B,]4 [E,C]2 [E,B,]2 | [B,,B,]2 [B,,A,]2 [B,,A,]4 | [B,,B,]4 [B,,B,]2 [B,,C]2 | %3
 [E,C]2 [E,B,]2 [E,B,]4 | [E,G,]4 [E,A,]2 [E,G,]2 | [A,,A,]2 [A,,A,]2 [A,,A,]2 [A,,A,]2 | %6
 [B,,A,]2 [B,,G,]2 !fermata![B,,B,]3 [B,,A,] | [E,G,]6 z2 |] %8

